assets/sonr-icons/axl-fill.svg

<svg xmlns="http://www.w3.org/2000/svg" width="24" height="24" fill="none"><path fill="currentColor" d="M12 22c5.523 0 10-4.477 10-10S17.523 2 12 2 2 6.477 2 12s4.477 10 10 10m5.45-15.763-4.579 4.579a1.224 1.224 0 0 1-1.737 0L6.555 6.237 8.292 4.5l3.71 3.71 3.71-3.71zm-1.66 5.76 3.71 3.71-1.737 1.737-4.579-4.579a1.23 1.23 0 0 1 0-1.737l4.579-4.579L19.5 8.286zm-.083 7.503-3.71-3.71-3.71 3.71-1.737-1.737 4.579-4.579c.48-.48 1.257-.48 1.737 0l4.579 4.579zm-4.531-7.497c0 .326-.129.638-.36.869l-4.579 4.579L4.5 15.714l3.71-3.71-3.71-3.71 1.737-1.737 4.579 4.579c.23.23.36.543.36.869z"/></svg>

<svg xmlns="http://www.w3.org/2000/svg" width="24" height="24" fill="none" viewBox="0 0 24 24"><path fill="#000" d="M12 22C17.523 22 22 17.523 22 12C22 6.477 17.523 2 12 2C6.477 2 2 6.477 2 12C2 17.523 6.477 22 12 22ZM17.45 6.237L12.871 10.816C12.631 11.056 12.317 11.176 12.002 11.176C11.687 11.176 11.374 11.056 11.134 10.816L6.555 6.237L8.292 4.5L12.002 8.21L15.712 4.5L17.449 6.237H17.45ZM15.79 11.997L19.5 15.707L17.763 17.444L13.184 12.865C12.705 12.385 12.705 11.608 13.184 11.128L17.763 6.549L19.5 8.286L15.79 11.997ZM15.707 19.5L11.997 15.79L8.287 19.5L6.55 17.763L11.129 13.184C11.609 12.704 12.386 12.704 12.866 13.184L17.445 17.763L15.708 19.5H15.707ZM11.176 12.003C11.176 12.329 11.047 12.641 10.816 12.872L6.237 17.451L4.5 15.714L8.21 12.004L4.5 8.294L6.237 6.557L10.816 11.136C11.046 11.366 11.176 11.679 11.176 12.005V12.003Z"/></svg>
